X:1     %Music
T:Lancashire Peace Egging Song (2)
B:Broadwood, Lucy, 1893, English County Songs, Leadenhall Press, London
S:Miss Margaret Royds, Heysham
Z:Lucy Broadwood
F:http://www.folkinfo.org/songs
M:4/4     %Meter
L:1/8     %
K:A
(A3/2F/) |E2 A2 A2 c2 |A2 F2 E2 z2|
w:Come* listen a-while un-to my song, 
B2 B2 B2 A2 | c2 e2 A2 z2|
w:March a-long, bold  Wel-ling-ton, 
d2 c2 B2 A2 |c3 A F3 
w:March right down to th'ca-bin door, 
G |A2 F2 E2 A2 | F2 D2 D2 z2 |
w:For that's the place where we a-dore. 
C2 E2 A4 |G2 A2 B4 |c2 A2 d2 
w:Ri-fol-lay, ri-fol-lay, ri-fol-lay, 
c2 |B3/2A/ B3/2G/ A2 z2 |]
w:ri-fol-de-rol-de-ray 